icons/fill-new-communication-message-chat-dot-round.svg

<svg xmlns="http://www.w3.org/2000/svg" width="32px" height="32px" viewBox="0 0 32 32" version="1.1">
    <title>fill-new-communication-message-chat-dot-round</title>
    <g id="fill-new-communication-message-chat-dot-round" stroke-width="1" fill-rule="evenodd">
        <path d="M16,3 C23.7319865,3 30,8.82029825 30,16 C30,23.1797017 23.7319865,29 16,29 C13.4848003,29 11.1245164,28.3841031 9.08451609,27.305865 L4.47385404,28.8420487 C4.25843511,28.913855 4.02499189,28.9102083 3.81192092,28.8317085 C3.29368832,28.6407807 3.02835536,28.0658926 3.21928316,27.54766 L4.66278093,23.6287407 C2.98777246,21.4861011 2,18.8501643 2,16 C2,8.82029825 8.2680135,3 16,3 Z M16,14.5 C15.1715729,14.5 14.5,15.1715729 14.5,16 C14.5,16.8284271 15.1715729,17.5 16,17.5 C16.8284271,17.5 17.5,16.8284271 17.5,16 C17.5,15.1715729 16.8284271,14.5 16,14.5 Z M22,14.5 C21.1715729,14.5 20.5,15.1715729 20.5,16 C20.5,16.8284271 21.1715729,17.5 22,17.5 C22.8284271,17.5 23.5,16.8284271 23.5,16 C23.5,15.1715729 22.8284271,14.5 22,14.5 Z M10,14.5 C9.17157288,14.5 8.5,15.1715729 8.5,16 C8.5,16.8284271 9.17157288,17.5 10,17.5 C10.8284271,17.5 11.5,16.8284271 11.5,16 C11.5,15.1715729 10.8284271,14.5 10,14.5 Z" id="&#24418;&#29366;" />
    </g>
</svg>

<svg xmlns="http://www.w3.org/2000/svg" viewBox="0 0 32 32"><path fill="currentColor" d="M16 3c7.732 0 14 5.82 14 13s-6.268 13-14 13c-2.515 0-4.875-.616-6.915-1.694l-4.611 1.536a1 1 0 0 1-1.255-1.294l1.444-3.92C2.988 21.487 2 18.85 2 16 2 8.82 8.268 3 16 3m0 11.5a1.5 1.5 0 1 0 0 3 1.5 1.5 0 0 0 0-3m6 0a1.5 1.5 0 1 0 0 3 1.5 1.5 0 0 0 0-3m-12 0a1.5 1.5 0 1 0 0 3 1.5 1.5 0 0 0 0-3"/></svg>
